svg/furkot/icomoon/minus.svg

<svg viewBox="0 0 512 512" xmlns="http://www.w3.org/2000/svg"><path d="m0 208v96c0 8.84 7.16 16 16 16h480c8.84 0 16-7.16 16-16v-96c0-8.84-7.16-16-16-16h-480c-8.84 0-16 7.16-16 16z"/></svg>

<svg xmlns="http://www.w3.org/2000/svg" viewBox="0 0 512 512"><path d="M0 208V304C0 312.84 7.16 320 16 320H496C504.84 320 512 312.84 512 304V208C512 199.16 504.84 192 496 192H16C7.16 192 0 199.16 0 208Z"/></svg>
